X: 41
T: Missa De feria / Kyrie
N: Derived from Rue1009a-Missa_De_feria-Kyrie.krn
C: Pierre de la Rue
%%abc-version 2.0
%%abcx-abcm2ps-target-version 5.9.1 (29 Sep 2008)
%%abc-creator hum2abc beta
%%abcx-conversion-date 2019/02/17 08:01:11
%%abc-edited-by Jesse Rodin
%%abc-edited-by Chris Gage 01-15-2013
%%abcx-initial-encoding-date 2013/07/17/
%%humdrum-veritas 3233706083
%%humdrum-veritas-data 2427971212
%%linebreak <none>
%%barnumbers 0
L: 1/4
M: 4/2
Q: 1/2=120
V: 1 clef=treble
V: 2 clef=treble-8
V: 3 clef=treble-8
V: 4 clef=treble-8
V: 5 clef=bass
K: C
[V:1] z8 | 
[V:2] z4B4- | 
[V:3] z8 | 
[V:4] z8 | 
[V:5] E,8 | 
[V:1] z8 | 
[V:2] B4d4 | 
[V:3] z8 | 
[V:4] z8 | 
[V:5] G,4F,4- | 
[V:1] z8 | 
[V:2] c6BA | 
[V:3] z8 | 
[V:4] z8 | 
[V:5] F,2E,D,E,2A,2- | 
[V:1] z8 | 
[V:2] B4z2A2 | 
[V:3] z8 | 
[V:4] z8 | 
[V:5] A,2^G,2A,4 | 
[V:1] z4E4- | 
[V:2] c3de2E2 | 
[V:3] z8 | 
[V:4] z8 | 
[V:5] z2A,,2C,3D, | 
[V:1] E4G4 | 
[V:2] G3ABcd2- | 
[V:3] z8 | 
[V:4] z8 | 
[V:5] E,F,G,4F,E, | 
[V:1] F6ED | 
[V:2] d2cBA2d2- | 
[V:3] z8 | 
[V:4] z8 | 
[V:5] D,8 | 
[V:1] E4z2D2 | 
[V:2] d2^c2d4- | 
[V:3] z8 | 
[V:4] z8 | 
[V:5] z4D,4- | 
[V:1] F3GABc2- | 
[V:2] d4c2e2- | 
[V:3] z8 | 
[V:4] z8 | 
[V:5] D,4A,,4- | 
[V:1] c2BAG4 | 
[V:2] e2dcBAGF | 
[V:3] z4B4 | 
[V:4] E4E4 | 
[V:5] A,,4E,4- | 
[V:1] G3AB2A2- | 
[V:2] E4z4 | 
[V:3] B4d4 | 
[V:4] G4F4- | 
[V:5] E,4D,4 | 
[V:1] A2GFE4 | 
[V:2] A8 | 
[V:3] c6BA | 
[V:4] F2EDE4 | 
[V:5] A,,8 | 
[V:1] z2F3DFG | 
[V:2] F3DFGA2 | 
[V:3] B4A4- | 
[V:4] D8 | 
[V:5] z4z2D,2 | 
[V:1] A2F3GAB | 
[V:2] D2A4GF | 
[V:3] A4z2A2 | 
[V:4] z2D2F3G | 
[V:5] F,3G,A,4 | 
[V:1] c4c2B2- | 
[V:2] E8 | 
[V:3] c3de2e2- | 
[V:4] A2A4G2 | 
[V:5] A,,3B,,C,D,E,2 | 
[V:1] BAA4^G2 | 
[V:2] z4G4 | 
[V:3] e2d2e4 | 
[V:4] A4B4 | 
[V:5] F,4E,4 | 
[V:1] A4z2c2- | 
[V:2] c8- | 
[V:3] f4e4- | 
[V:4] A8 | 
[V:5] A,,8 | 
[V:1] cBA4GF | 
[V:2] c8 | 
[V:3] e4z2e2- | 
[V:4] z2A4A2 | 
[V:5] z2A,,4A,,2 | 
[V:1] E2c2B2G2- | 
[V:2] c4d3c | 
[V:3] e2e2d2B2 | 
[V:4] G2E2G3F | 
[V:5] C,3B,,G,,3A,, | 
[V:1] G2F2D4 | 
[V:2] B2AGF4 | 
[V:3] B2AGF4 | 
[V:4] D3EFGA2- | 
[V:5] B,,C,D,4C,B,, | 
[V:1] C3DEFG2- | 
[V:2] F2E4E2 | 
[V:3] F2E4E2 | 
[V:4] A2A2G2E2- | 
[V:5] A,,4C,4 | 
[V:1] GFE2DCD2 | 
[V:2] G4A4- | 
[V:3] G4A4- | 
[V:4] EFGEF4 | 
[V:5] G,,4D,4 | 
[V:1] E8 ||  
[V:2] A4G4 ||  
[V:3] A4G4 ||  
[V:4] E8 ||  
[V:5] A,,4E,,4 & x4E,4 ||  
[V:1]  [K:C] [K:clef=treble][M:2/1]z8 | 
[V:2]  [K:C] [K:clef=treble-8][M:2/1]d8 | 
[V:3]  [K:C] [K:clef=treble-8][M:2/1]z8 | 
[V:4]  [K:C] [K:clef=treble-8][M:2/1]z8 | 
[V:5]  [K:C] [K:clef=bass][M:2/1]z4G,4- | 
[V:1] z8 | 
[V:2] B4c4 | 
[V:3] z8 | 
[V:4] z8 | 
[V:5] G,4E,4 | 
[V:1] z8 | 
[V:2] A4B4- | 
[V:3] z8 | 
[V:4] z8 | 
[V:5] F,4D,4 | 
[V:1] z4G4- | 
[V:2] B4G3A | 
[V:3] z8 | 
[V:4] z8 | 
[V:5] E,8- | 
[V:1] G4E4 | 
[V:2] B2c4A2- | 
[V:3] z8 | 
[V:4] z8 | 
[V:5] E,4C,4 | 
[V:1] F4D4 | 
[V:2] A2B4G2- | 
[V:3] z8 | 
[V:4] z8 | 
[V:5] D,4B,,4 | 
[V:1] E6DC | 
[V:2] G2F2E4 | 
[V:3] z8 | 
[V:4] z8 | 
[V:5] C,8 | 
[V:1] B,8 | 
[V:2] D8 | 
[V:3] d4d4 | 
[V:4] z4G4 | 
[V:5] G,,8 | 
[V:1] z4G4 | 
[V:2] z8 | 
[V:3] B4c4 | 
[V:4] G4E4 | 
[V:5] z8 | 
[V:1] A4A4 | 
[V:2] z4A4 | 
[V:3] A4d4- | 
[V:4] F4D4 | 
[V:5] z8 | 
[V:1] B2d3cB2 | 
[V:2] G2B3cd2 | 
[V:3] d4B4 | 
[V:4] G8 | 
[V:5] G,,8 | 
[V:1] A2G4^F2 | 
[V:2] e4d4- | 
[V:3] c4A4 | 
[V:4] E4F4 | 
[V:5] C,4D,4 | 
[V:1] G6E2 | 
[V:2] d4B4 | 
[V:3] B8 | 
[V:4] D4E4- | 
[V:5] G,,8 | 
[V:1] E4z2c2- | 
[V:2] c2A4GF | 
[V:3] z4e4- | 
[V:4] E4z4 | 
[V:5] A,,8- | 
[V:1] c2B2A4- | 
[V:2] E4E4 | 
[V:3] e2d2c2B2 | 
[V:4] A6G2 | 
[V:5] A,,8 | 
[V:1] A2G2F3E | 
[V:2] F3GA4 | 
[V:3] A4d4- | 
[V:4] F2E2D4 | 
[V:5] D,8 | 
[V:1] D4G3A | 
[V:2] B4G4 | 
[V:3] d4c4 | 
[V:4] G8 | 
[V:5] G,,4E,4 | 
[V:1] B2A4G2- | 
[V:2] z8 | 
[V:3] d8 | 
[V:4] F4G4- | 
[V:5] D,4G,,4 | 
[V:1] G2FEF4 | 
[V:2] z4A4 | 
[V:3] e4d4- | 
[V:4] G4A4 | 
[V:5] z4D,4 | 
[V:1] G4d4- | 
[V:2] B2d3cB2 | 
[V:3] d4z4 | 
[V:4] G8 | 
[V:5] B,,2G,,3A,,B,,C, | 
[V:1] d4B4 | 
[V:2] A2B4G2 | 
[V:3] z8 | 
[V:4] z8 | 
[V:5] D,4E,4 | 
[V:1] c4A4 | 
[V:2] AG^FE^F4 | 
[V:3] z4d4- | 
[V:4] z8 | 
[V:5] A,,4D,4 | 
[V:1] B2d3cB2 | 
[V:2] G4D4 | 
[V:3] d4B4 | 
[V:4] G8 | 
[V:5] G,,8 | 
[V:1] A2G4^F2 | 
[V:2] G4A4 | 
[V:3] c4A4 | 
[V:4] E4F4 | 
[V:5] z4D,3C, | 
[V:1] G8 | 
[V:2] G4B3c | 
[V:3] d8 | 
[V:4] D4G4- | 
[V:5] B,,A,,G,,4G,2- | 
[V:1] z8 | 
[V:2] d2e4e2 | 
[V:3] B4c4 | 
[V:4] G4E4 | 
[V:5] G,F,E,D,C,4 | 
[V:1] z4d4- | 
[V:2] d4z2d2- | 
[V:3] A8 | 
[V:4] F4D4- | 
[V:5] D,8 | 
[V:1] d4B4 | 
[V:2] dcB3AGF | 
[V:3] d8 | 
[V:4] D4G4- | 
[V:5] B,,4G,,4 | 
[V:1] c4A4 | 
[V:2] E4F4 | 
[V:3] c4d4- | 
[V:4] G4F4 | 
[V:5] A,,4D,4 | 
[V:1] B8 ||  
[V:2] D8 ||  
[V:3] d8 ||  
[V:4] G8 ||  
[V:5] G,,8 ||  
[V:1]  [K:C] [K:clef=treble][M:4/2]G8 | 
[V:2]  [K:C] [K:clef=treble-8][M:4/2]z8 | 
[V:3]  [K:C] [K:clef=treble-8][M:4/2]z8 | 
[V:4]  [K:C] [K:clef=treble-8][M:4/2]z8 | 
[V:5]  [K:C] [K:clef=bass][M:4/2]z4G,4 | 
[V:1] E2F2G2E2- | 
[V:2] z8 | 
[V:3] z8 | 
[V:4] z8 | 
[V:5] A,4G,4 | 
[V:1] E2D2E2G2 | 
[V:2] z8 | 
[V:3] z8 | 
[V:4] z8 | 
[V:5] E,2F,2G,2E,2- | 
[V:1] F3EC2E2- | 
[V:2] z8 | 
[V:3] z8 | 
[V:4] z8 | 
[V:5] E,2D,2E,2G,2 | 
[V:1] E2D2E4 | 
[V:2] z4c4 | 
[V:3] z8 | 
[V:4] z8 | 
[V:5] F,3E,C,3D, | 
[V:1] C2D2E2C2- | 
[V:2] A2B2c2A2- | 
[V:3] z8 | 
[V:4] z8 | 
[V:5] E,F,D,2A,,4 | 
[V:1] C2B,2C2A,2- | 
[V:2] A2G2A2c2 | 
[V:3] z8 | 
[V:4] z8 | 
[V:5] E,4A,,4 | 
[V:1] A,2^G,2A,4 | 
[V:2] B4A4 | 
[V:3] z8 | 
[V:4] z4E3F | 
[V:5] z4A,,4 | 
[V:1] z8 | 
[V:2] E4z4 | 
[V:3] B3cdef2- | 
[V:4] GAB4A2- | 
[V:5] E,2G,4D,2 | 
[V:1] z8 | 
[V:2] z8 | 
[V:3] f2e4d2 | 
[V:4] A2G2F4 | 
[V:5] F,2C,2D,4 | 
[V:1] z2E3FGA | 
[V:2] z4z2E2- | 
[V:3] c4B4- | 
[V:4] E8 | 
[V:5] A,,4z4 | 
[V:1] B2G3ABc | 
[V:2] EFGAB2G2- | 
[V:3] B4z4 | 
[V:4] z8 | 
[V:5] z8 | 
[V:1] d2c4B2 | 
[V:2] GABcd4 | 
[V:3] z8 | 
[V:4] z8 | 
[V:5] z4G,,4 | 
[V:1] c4z4 | 
[V:2] c4z4 | 
[V:3] z4G3A | 
[V:4] C3DEFG2- | 
[V:5] A,,3B,,C,D,E,2- | 
[V:1] z8 | 
[V:2] z8 | 
[V:3] Bcd4c2 | 
[V:4] G2F2E4 | 
[V:5] E,2D,2A,,4 | 
[V:1] z2F3GAB | 
[V:2] d6cB | 
[V:3] B4A4 | 
[V:4] D4z4 | 
[V:5] D,8 | 
[V:1] c3B/A/c2B2- | 
[V:2] ABcde4 | 
[V:3] z8 | 
[V:4] z8 | 
[V:5] z8 | 
[V:1] B2A3^GG2 | 
[V:2] dcBAB4 | 
[V:3] z8 | 
[V:4] z8 | 
[V:5] z8 | 
[V:1] A8 | 
[V:2] A8 | 
[V:3] z4z2c2- | 
[V:4] z2F3GAB | 
[V:5] z2D,4C,2 | 
[V:1] z8 | 
[V:2] z8 | 
[V:3] cdefg4- | 
[V:4] c6BA | 
[V:5] A,,2C,2C,3D, | 
[V:1] z8 | 
[V:2] z8 | 
[V:3] g2fed2e2 | 
[V:4] G2A2B2A2- | 
[V:5] E,2F,2G,3F, | 
[V:1] z4A4 | 
[V:2] z8 | 
[V:3] f2e4d2 | 
[V:4] A2G2A2F2 | 
[V:5] D,2E,2F,4 | 
[V:1] G2E2G3F | 
[V:2] z2A2G2E2 | 
[V:3] e2c2B4- | 
[V:4] E8 | 
[V:5] C,3D,E,F,G,2- | 
[V:1] DEF4E2- | 
[V:2] G4A2G2 | 
[V:3] B4z4 | 
[V:4] z8 | 
[V:5] G,2F,E,D,2E,2 | 
[V:1] E2D2E4 | 
[V:2] A4B4 | 
[V:3] z4e4 | 
[V:4] A4G2E2 | 
[V:5] F,4E,4 | 
[V:1] z8 | 
[V:2] B2d3cAB | 
[V:3] d2B2d3c | 
[V:4] G3FDEF2- | 
[V:5] z8 | 
[V:1] z8 | 
[V:2] c4z4 | 
[V:3] ABc4B2 | 
[V:4] F2E2D4 | 
[V:5] C,4G,,4 | 
[V:1] E4G4 | 
[V:2] c8 | 
[V:3] A4G4 | 
[V:4] C4z4 | 
[V:5] z2C,4E,2 | 
[V:1] F4E2A2- | 
[V:2] A2B2c3A | 
[V:3] z8 | 
[V:4] z8 | 
[V:5] D,4A,,4 | 
[V:1] A2G2A3G | 
[V:2] B4A2c2- | 
[V:3] z8 | 
[V:4] z8 | 
[V:5] z2E,2F,3E, | 
[V:1] E2G3FD2 | 
[V:2] cBG3ABG | 
[V:3] z4B4 | 
[V:4] E4G4 | 
[V:5] C,3D,E,F,G,2 | 
[V:1] F4z2E2 | 
[V:2] A4A3G | 
[V:3] d4c4 | 
[V:4] F4E2A2- | 
[V:5] D,3C,A,,2C,2 | 
[V:1] F2G2C2F2 | 
[V:2] F2E2z2A2 | 
[V:3] B2e4d2 | 
[V:4] A2G2A3G | 
[V:5] D,2E,2A,,2D,2 | 
[V:1] G2E2G3F | 
[V:2] c4d4 | 
[V:3] e3dB2d2- | 
[V:4] E2G3FD2 | 
[V:5] C,3B,,G,,2_B,,2- | 
[V:1] D2A3GE2 | 
[V:2] B2c4BA | 
[V:3] dcA2c4 | 
[V:4] F4z2E2- | 
[V:5] B,,A,,F,,2A,,4 | 
[V:1] G3FD2F2- | 
[V:2] G4z4 | 
[V:3] z2B4d2- | 
[V:4] E2G4FE | 
[V:5] E,,4z4 | 
[V:1] F2E3DD2 | 
[V:2] z8 | 
[V:3] d2cBA2B2 | 
[V:4] D2E2F4 | 
[V:5] z8 | 
[V:1] E8 |]  
[V:2] G8 |]  
[V:3] c4B4 |]  
[V:4] E8 |]  
[V:5] E,,8 |]  



